X:1647
T:Drink to me only
O:england
C:anon.
M:6/8
L:1/8
K:D
"D"FFF "A7"G2G|"D"(AG)F "A7"(EF)G|"D"(AD)"G"G "D"F2"A7"E|"D"D6:|
w:Drink to me onl-y with_ thine eyes,_ and I_ will pledge with mine.
w:Or leave a kiss with-in_ the cup_ and I'll_ not ask for wine.
"D"(AF)"A7"A "D"d2"A7"A|"D"(AF)"A7"A "D"A2A|"G"B2"D"A "A7"(AG)"D"F|"D"F3 "A7"E3|]
w:The_ thirst that from the_ soul doth rise doth ask a_ drink di-vine.
"D"FFF "A7"G2G|"D"(AG)F "A7"(EF)G|"D"(AD)"G"G "D"F2"A7"E|"D"D6|]
w:But might I of Jove's nect-_ar sup,_ I would_ not change for thine.
W:
W:Drink to me only with thine eyes, and I will pledge with mine.
W:Or leave a kiss within the cup and I'll not ask for wine.
W:The thirst that from the soul doth rise doth ask a drink divine.
W:But might I of Jove's nectar sup, I would not change for thine.


